!!!!SEGMENT: pl-wumfc--n53446--001-028_moniuszko-stanislaw--hrabina-no-23-spiew-hrabiny.krn
!!!cenid: 18xx:4115
!!!COM: Moniuszko, Stanisław
!!!COM-rismID: pe30008351
!!!CDT: 1819/05/05-1872/06/04
!!!CNT: Polish
!!!OPR: Hrabina
!!!OTL: No. 23. Śpiew Hrabiny
!!!OMV: 028
!!!PDT:
!!!AGN:
!!!SMS-siglum: PL-Wumfc
!!!SMS-shelfmark: N53446
!!!SMS-shelfwork: 001-028 M
!!!SMS-variant:
!!!SMS-altvar:
!!!NIFC-rismSourceID: 1001165649
!!!NIFC-rismChildID: 1001165649
!!!NIFC-islandoraID: pl-wumfc:6884
!!!URL-pdf-islandora: https://repozytorium.nifc.pl/islandora/object/pl-wumfc%3A6884/datastream/PDF/view
!!!URL-scan: https://polish.musicsources.pl/pl/lokalizacje/galeria/druki-muzyczne/12579-hrabina @EN{Scan on Polish Music Sources Website} @PL{Skany w portalu Dziedzictwo Muzyki Polskiej w otwartym dostępie}
!!!ONB-nifc:
!!!AIN: 1 piano
!!!key: C
**kern	**kern	**text	**dynam
*part1	*part1	*part1	*part1
*staff2	*staff1	*staff1	*
*I"[Piano.]	*I"[Piano.]	*	*
*Ipiano	*Ipiano	*	*
*ICklav	*ICklav	*	*
*clefF4	*clefG2	*	*
*k[]	*k[]	*	*
*C:	*C:	*	*
*M3/4	*M3/4	*	*
=1	=1	=1	=1
*tremolo	*tremolo	*	*
!!LO:TX:a:B:t=Allegro
!	!LO:TX:t=P:problem:cały tekst zapisany ponad pięciolinią	!	!
32DDLLL 32GGG/	32ggLLL 32ff 32dd\	.	ff
32GG/	32b\	.	.
32DD 32GGG/	32gg 32ff 32dd\	.	.
32GG/	32b\	.	.
32DD 32GGG/	32gg 32ff 32dd\	.	.
32GG/	32b\	.	.
32DD 32GGG/	32gg 32ff 32dd\	.	.
32GG/	32b\	.	.
32DD 32GGG/	32gg 32ff 32dd\	.	.
32GG/	32b\	.	.
32DD 32GGG/	32gg 32ff 32dd\	.	.
32GG/	32b\	.	.
32DD 32GGG/	32gg 32ff 32dd\	.	.
32GG/	32b\	.	.
32DD 32GGG/	32gg 32ff 32dd\	.	.
32GG/	32b\	.	.
32DD 32GGG/	32gg 32ff 32dd\	.	.
32GG/	32b\	.	.
32DD 32GGG/	32gg 32ff 32dd\	.	.
32GG/	32b\	.	.
32DD 32GGG/	32gg 32ff 32dd\	.	.
32GG/	32b\	.	.
32DD 32GGG/	32gg 32ff 32dd\	.	.
32GG/JJJ	32b\JJJ	.	.
*Xtremolo	*Xtremolo	*	*
=2	=2	=2	=2
8GGG/	16.aa^\LL	.	.
.	32gg\K	.	.
*	*Xtuplet	*	*
8r	24ff\	.	.
.	24dd\	.	.
.	24b\JJ	.	.
*	*tuplet	*	*
4r	8g/	.	.
.	8r	.	.
!!LO:TX:a:B:t=Allegretto
!	!LO:TX:b:i:t=risoluto	!	!
4r	12e/L	Zbu-	f
.	12g/	.	.
.	12cc/J	-dzić	.
=3	=3	=3	=3
4C 4CC/	4.c/	się	.
4G 4E^\	.	.	.
.	8c/L	z u-	.
4G 4E'\	8.c^/	-łud-	.
.	16c/Jk	-nych	.
=4	=4	=4	=4
4D 4DD'/	4B/	snów	.
4G 4F^\	4r	.	.
4B 4G 4F'\	12g/L	stłu-	.
.	12b/	.	.
.	12dd/J	-mić	.
=5	=5	=5	=5
4GG 4GGG/	4.ff\	jęk	.
4B 4G 4D^\	.	.	.
.	8f/L	co	.
4B 4G 4F'\	8.g^/	w ser-	.
.	16d/Jk	-cu	.
!!LO:LB:g=original
=6	=6	=6	=6
4C 4CC/	4e/	wre,	.
4c 4G 4E^\	4r	.	.
4c 4G 4E'\	12e/L	wra-	.
.	12g/	.	.
.	12cc/J	-cać	.
=7	=7	=7	=7
*	*^	*	*
8.EL 8.EE\	(4.ee/	8.r	więc	.
16dJk 16B 16E\	.	16g#X 16e\	.	.
8d 8B 8E\	.	8g# 8e\	.	.
8r	8dd/L	8r	sa-	.
4r	8.cc/	4r	-mot-	.
.	16b/Jk	.	-nie	.
=8	=8	=8	=8	=8
4AA 4AAA/	2a/)	4r	znów	.
4r	.	4e 4c\	.	.
8.C/L	12cc/L	4e-X 4c\	w mod-	.
.	12b/	.	.	.
.	12a/J	.	-ny	.
16E-X/Jk	.	.	.	.
=9	=9	=9	=9	=9
4B 4G 4D\	4dd 4g^ 4d//	2ryy	tłum	.
4r	8r	.	.	.
.	8d/L	.	to	.
4D 4DD;</	8.e-X;/	4c 4F#X\	ży-	.
.	16d/Jk	.	-cie	.
*	*v	*v	*	*
=10	=10	=10	=10
8D 8GG/	8g 8B 8G/	czcze....	.
8r	8r	.	.
8GG 8DD 8GGG/	8gg 8dd 8b 8g\	.	f
8r	8g/L	.	.
4r	8g/	.	.
.	8a/J	.	.
!!LO:LB:g=original
=11	=11	=11	=11
*	*^	*	*
2.E\	8bL 8g'/	4ryy	.	.
.	8gJ 8e'/	.	.	.
.	(4b/	8g\L	.	.
.	.	8e\J	.	.
.	8a/L)	8f#X\L	.	.
.	8ccJ 8a/	8f#\J	.	.
=12	=12	=12	=12	=12
2E\	(4b/	8g\L	.	.
.	.	8e\	.	.
.	8ee/)	8g\J	.	.
.	8e/L	4.ryy	.	.
4D\	8e/	.	.	.
.	8f#X/J	.	.	.
=13	=13	=13	=13	=13
4.C/	4.g/	8e\L	.	.
.	.	8c\	.	.
.	.	8e\	.	.
8C'/L	8g#X/L	8e\	.	.
8C'/	8a/	8e\	.	.
8C'/J	8a#X/J	8e\J	.	.
=14	=14	=14	=14	=14
*^	*	*	*	*
2F#X/	8BB\L	4.b/	2d#X\	.	pp
.	8BB\	.	.	.	.
.	8BB\	.	.	.	.
.	8BB\	8b/L	.	.	.
4An 4F#/	8BB\	8.cc/	4e\	.	.
.	8BB\J	.	.	.	.
.	.	16a/Jk	.	.	.
=15	=15	=15	=15	=15	=15
2A 2F#X/	8BB\L	4.b/	2d#X\	.	.
.	8BB\	.	.	.	.
.	8BB\	.	.	.	.
.	8BB\	8b/L	.	.	.
4A 4F#/	8BB\	8.ddn;/	4e^\	.	.
.	8BB\J	.	.	.	.
.	.	16cc/Jk	.	.	.
*v	*v	*	*	*	*
!!LO:LB:g=original
=16	=16	=16	=16	=16
8F#XL 8BB\	4.b/	8d#X\L	.	<
8F# 8BB\	.	8d#\	.	.
8F# 8BB\	.	8d#\	.	.
8F# 8BB\	8b/L	8d#\	.	.
8F# 8BB\	8a#X/	8d#\	.	.
8F#J 8BB\	8b/J	8d#\J	.	.
=17	=17	=17	=17	=17
8.EL 8.EE/	4gg;/	8.a#XL 8.g\	.	[ f
16cJk 16G 16E/	.	16a#Jk 16g\	.	.
8c 8G 8E\	8r	8a# 8g\	.	p
8r	(16ff#X/LL	8r	.	.
.	16ee/JJ)	.	.	.
8r	16dd/LL	8r	.	.
.	16cc/JJ	.	.	.
8E 8C/	16b/LL	8e\	.	.
.	16an/JJ	.	.	.
*	*v	*v	*	*
=18	=18	=18	=18
8F#X 8BB/	2b 2d#X/	.	<
16BBB/LL	.	.	.
16BB/JJ	.	.	.
*tremolo	*	*	*
16BBB/LL	.	.	.
16BB/	.	.	.
16BBB/	.	.	.
16BB/	.	.	.
16BBB/	4r	.	.
16BB/	.	.	.
16BBB/	.	.	.
16BB/JJ	.	.	.
=19	=19	=19	=19
16BBB/LL	2.r	.	.
16BB/	.	.	.
16BBB/	.	.	.
16BB/	.	.	.
16BBB/	.	.	.
16BB/	.	.	.
16BBB/	.	.	[[
16BB/	.	.	.
16BBB/	.	.	.
16BB/	.	.	.
16BBB/	.	.	.
16BB/JJ	.	.	.
=20	=20	=20	=20
*	*tremolo	*	*
!!LO:TX:a:B:t=Allegro.
32DDLLL 32GGG/	32ggLLL 32ff 32ddn\	.	ff
32GG/	32b\	.	.
32DD 32GGG/	32gg 32ff 32dd\	.	.
32GG/	32b\	.	.
32DD 32GGG/	32gg 32ff 32dd\	.	.
32GG/	32b\	.	.
32DD 32GGG/	32gg 32ff 32dd\	.	.
32GG/	32b\	.	.
32DD 32GGG/	32gg 32ff 32dd\	.	.
32GG/	32b\	.	.
32DD 32GGG/	32gg 32ff 32dd\	.	.
32GG/	32b\	.	.
32DD 32GGG/	32gg 32ff 32dd\	.	.
32GG/	32b\	.	.
32DD 32GGG/	32gg 32ff 32dd\	.	.
32GG/	32b\	.	.
32DD 32GGG/	32gg 32ff 32dd\	.	.
32GG/	32b\	.	.
32DD 32GGG/	32gg 32ff 32dd\	.	.
32GG/	32b\	.	.
32DD 32GGG/	32gg 32ff 32dd\	.	.
32GG/	32b\	.	.
32DD 32GGG/	32gg 32ff 32dd\	.	.
32GG/JJJ	32b\JJJ	.	.
*Xtremolo	*Xtremolo	*	*
!!LO:LB:g=original
=21	=21	=21	=21
8GGG/	16.aa^\LL	.	.
.	32gg\K	.	.
*	*Xtuplet	*	*
8r	24ff\	.	.
.	24dd\	.	.
.	24b\JJ	.	.
*	*tuplet	*	*
4r	8g/	.	.
.	8r	.	.
!!LO:TX:a:B:t=Più lento.
!	!LO:TX:b:i:t=risoluto	!	!
4r	12e/L	.	f
.	12g/	.	.
.	12cc/J	.	.
=22	=22	=22	=22
4CC'/	4.c 4.G 4.E/	.	.
4G 4E^\	.	.	.
.	8c/L	.	.
4G 4E'\	8.c^/	.	.
.	16c/Jk	.	.
=23	=23	=23	=23
4DD/	4B 4G 4F/	.	.
4G 4F^\	4r	.	.
4B 4G 4F'\	12g/L	.	.
.	12b/	.	.
.	12dd/J	.	.
=24	=24	=24	=24
4GG'/	4.ff 4.dd 4.b 4.f'\	.	.
4B 4G 4D^\	.	.	.
.	8f/L	.	.
4B 4G 4F'\	8.g^/	.	.
.	16d/Jk	.	.
=25	=25	=25	=25
4C 4CC/	4e 4c 4G/	.	.
4c 4G 4E^\	4r	.	.
4c 4G 4E'\	12e/L	.	.
.	12g/	.	.
.	12cc/J	.	.
!!LO:PB:g=original
=26	=26	=26	=26
*	*^	*	*
4B 4G#X 4D 4BB\	4.ee/	2e\	.	.
4d 4G# 4E'\	.	.	.	.
.	8dd/L	.	.	.
4r	8.cc 8.e/	4ryy	.	.
.	16bJk 16d/	.	.	.
*	*v	*v	*	*
=27	=27	=27	=27
4A 4E 4AA\	4a 4c/	.	.
4r	4r	.	.
*Xtuplet	*	*	*
.	8qdd/	.	ff
12d#XL 12A 12F#X\	12ccL 12a'\	.	.
12d# 12A 12F#\	12b 12a'\	.	.
12d#J 12A 12F#\	12ccJ 12a'\	.	.
=28	=28	=28	=28
*^	*	*	*
8e 8c 8G\	2ryy	8gg 8cc 8g\	.	.
8r	.	8r	.	.
4r	.	8r	.	.
.	.	8g/L	.	.
8.Dn;/L	4GG\	8.fn 8.B;/	.	sf
16F/Jk	.	16d/Jk	.	.
*v	*v	*	*	*
=29	=29	=29	=29
8E 8C/	8c/	.	.
8r	8r	.	.
8C 8GG 8CC/	8ccc 8gg 8ee 8cc\	.	.
!!LO:TX:a:B:t=Più lento.
8r	8r	.	.
4r	4r	.	.
=30	=30	=30	=30
*	*^	*	*
4.AA 4.AAA/	(8.cc^/L	4.e 4.c\	.	p
.	16f#X/Jk)	.	.	.
.	2f#/	.	.	.
8A'\L	.	8eL 8c\	.	.
8A'\	.	8e 8c\	.	.
8A'\J	.	8eJ 8c\	.	.
*	*v	*v	*	*
!!LO:LB:g=original
=31	=31	=31	=31
4.AA^/	8.ccL 8.e-X 8.c/	.	.
.	16f#X/Jk	.	.
.	8f#/	.	.
!	!	!	!LO:HP:a
8c'\L	8f#L 8d'/	.	<
8A'\	8a 8f# 8d'/	.	.
8F#X'\J	8ccJ 8a 8d'/	.	[[
=32	=32	=32	=32
!	!	!	!LO:DY:a
2D 2DD/	(>8eenL 8cc/	.	sf >
.	8f#X/	.	.
.	8dd 8b/	.	.
.	8d/	.	.
4D\	8f#/	.	.
.	8a/J	.	]]
=33	=33	=33	=33
*	*^	*	*
4G 4GG/	2cc 2f#X/	8r	.	.
.	.	8d\L	.	.
8r	.	8e-X\	.	.
8F#X\L	.	8d\	.	.
8G\	8b/)	8g\	.	.
8A\J	8r	8d\J	.	.
=34	=34	=34	=34	=34
2B\	(4dd/	8r	.	.
.	.	8d\L	.	.
.	8cc/L	8g\J	.	.
.	8b/	4d\	.	.
4B\	8a/	.	.	.
.	8g/J)	8d\	.	.
=35	=35	=35	=35	=35
(2B\	(2g/	8e-X\L	.	.
.	.	8d\	.	.
.	.	8e-\	.	.
.	.	8c\	.	.
4A\)	4f#X/)	8d#X\	.	.
.	.	8c\J	.	.
!!LO:LB:g=original
=36	=36	=36	=36	=36
(4.G\	(4b/	8r	.	.
.	.	16B\	.	.
.	.	16ryy	.	.
.	8a/L	4en\	.	.
8B\L	8g/	.	.	.
8G\	8f#X/	4B\	.	.
8E\J	8d/J	.	.	.
=37	=37	=37	=37	=37
*^	*	*	*	*
8BB/)	4.ryy	8d#X/L	4.B\	.	.
8r	.	8f#X/	.	.	.
8r	.	8b/J)	.	.	.
8ryy	8BB\L	8b/L	8ryy	.	.
!LO:SIC:v:n=2:s=4F#/	!	!	!	!	!
4A 4F/	8BB\	8.cc/	4e^\	.	.
.	8BB\J	.	.	.	.
.	.	16a/Jk	.	.	.
=38	=38	=38	=38	=38	=38
2A 2F#X/	8BB\L	4.b/	2d#X\	.	.
.	8BB\	.	.	.	.
.	8BB\	.	.	.	.
.	8BB\	8b/L	.	.	.
4A 4F#/	8BB\	8.ddn;/	4e^\	.	.
.	8BB\J	.	.	.	.
.	.	16cc/Jk	.	.	.
*v	*v	*	*	*	*
=39	=39	=39	=39	=39
!LO:SIC:v:n=1:s=8F#L	!	!	!	!
8FL 8BB\	4.b/	8d#X\L	.	<
!LO:SIC:v:n=1:s=8F#	!	!	!	!
8F 8BB\	.	8d#\	.	.
!LO:SIC:v:n=1:s=8F#	!	!	!	!
8F 8BB\	.	8d#\	.	.
!LO:SIC:v:n=1:s=8F#	!	!	!	!
8F 8BB\	8b/L	8d#\	.	.
!LO:SIC:v:n=1:s=8F#	!	!	!	!
8F 8BB\	8a#X/	8d#\	.	.
!LO:SIC:v:n=1:s=8F#J	!	!	!	!
8FJ 8BB\	8b/J	8d#\J	.	[
=40	=40	=40	=40	=40
8.EL 8.EE\	4.gg;/	8.a#XL 8.g\	.	f
16cJk 16G 16E\	.	16a#Jk 16g\	.	.
8c 8G 8E\	.	8a# 8g\	.	p
8r	(16ff#X/LL	8r	.	.
.	16ee/JJ)	.	.	.
8r	(16dd/LL	8r	.	.
.	16cc/JJ)	.	.	.
8E 8C\	16b/LL	8e\	.	.
.	16a#/JJ	.	.	.
*	*v	*v	*	*
!!LO:LB:g=original
=41	=41	=41	=41
8F#X 8BB/	2b 2d#X/	.	<
16BBB/LL	.	.	.
16BB/JJ	.	.	.
*tremolo	*	*	*
16BBB/LL	.	.	.
16BB/	.	.	.
16BBB/	.	.	.
16BB/	.	.	.
16BBB/	4r	.	.
16BB/	.	.	.
16BBB/	.	.	.
16BB/JJ	.	.	.
=42	=42	=42	=42
16BBB/LL	2.r	.	.
16BB/	.	.	.
16BBB/	.	.	.
16BB/	.	.	.
16BBB/	.	.	.
16BB/	.	.	.
16BBB/	.	.	[[
16BB/	.	.	.
16BBB/	.	.	.
16BB/	.	.	.
16BBB/	.	.	.
16BB/JJ	.	.	.
=43	=43	=43	=43
*	*tremolo	*	*
!!LO:TX:a:B:t=Allegro.
32DDLLL 32GGG/	32ggLLL 32ff 32ddn\	.	ff
32GG/	32b\	.	.
32DD 32GGG/	32gg 32ff 32dd\	.	.
32GG/	32b\	.	.
32DD 32GGG/	32gg 32ff 32dd\	.	.
32GG/	32b\	.	.
32DD 32GGG/	32gg 32ff 32dd\	.	.
32GG/	32b\	.	.
32DD 32GGG/	32gg 32ff 32dd\	.	.
32GG/	32b\	.	.
32DD 32GGG/	32gg 32ff 32dd\	.	.
32GG/	32b\	.	.
32DD 32GGG/	32gg 32ff 32dd\	.	.
32GG/	32b\	.	.
32DD 32GGG/	32gg 32ff 32dd\	.	.
32GG/	32b\	.	.
32DD 32GGG/	32gg 32ff 32dd\	.	.
32GG/	32b\	.	.
32DD 32GGG/	32gg 32ff 32dd\	.	.
32GG/	32b\	.	.
32DD 32GGG/	32gg 32ff 32dd\	.	.
32GG/	32b\	.	.
32DD 32GGG/	32gg 32ff 32dd\	.	.
32GG/JJJ	32b\JJJ	.	.
*Xtremolo	*Xtremolo	*	*
=44	=44	=44	=44
4GGG/	16.aa^\LL	.	.
.	32gg\K	.	.
*	*Xtuplet	*	*
.	24ff\	.	.
.	24dd\	.	.
.	24b\JJ	.	.
*	*tuplet	*	*
4r	8g/	.	.
.	8r	.	.
!!LO:TX:a:B:t=Più lento.
!	!LO:TX:b:i:t=risoluto	!	!
4r	12e/L	.	f
.	12g/	.	.
.	12cc/J	.	.
=45	=45	=45	=45
4CC'/	4.c/	.	.
4G 4E'\	.	.	.
.	8c/L	.	.
4G 4E'\	8.c/	.	.
.	16c/Jk	.	.
=46	=46	=46	=46
4DD'/	4B/	.	.
4G 4F'\	4r	.	.
4B 4G 4F'\	12g/L	.	.
.	12b/	.	.
.	12dd/J	.	.
!!LO:LB:g=original
=47	=47	=47	=47
4GG/	4.ff\	.	.
4B 4G 4D'\	.	.	.
.	8f/L	.	.
4B 4G 4F'\	8.g^/	.	.
.	16d/Jk	.	.
=48	=48	=48	=48
4C'/	4e/	.	.
4c 4G 4E'\	4r	.	.
4c 4G'\	12e/L	.	.
.	12g/	.	.
.	12cc/J	.	.
=49	=49	=49	=49
*	*^	*	*
4B 4G#X 4D 4BB'\	4.ee/	2e\	.	.
4d 4G# 4E'\	.	.	.	.
.	8dd/L	.	.	.
4r	8.cc 8.e/	4ryy	.	.
.	16bJk 16d/	.	.	.
*	*v	*v	*	*
=50	=50	=50	=50
4.A 4.E 4.AA\	4.a 4.c/	.	.
8r	8r	.	.
.	8qdd/	.	ff
12d#XL 12A 12F#X\	12ccL 12a'\	.	.
12d# 12A 12F#\	12b 12a'\	.	.
12d#J 12A 12F#\	12ccJ 12a'\	.	.
=51	=51	=51	=51
*^	*	*	*
8e 8c 8G\	2ryy	8gg 8cc 8g\	.	.
8r	.	8r	.	.
4r	.	8r	.	.
.	.	8g/L	.	.
8.Dn;/L	4GG\	8.fn 8.B;/	.	sf
16F/Jk	.	16d/Jk	.	.
*v	*v	*	*	*
=52	=52	=52	=52
8E 8C/	8c/	.	.
8r	8r	.	.
8C 8GG 8CC/	8ccc 8gg 8ee 8cc\	.	sff
8r	8r	.	.
4r	4r	.	.
==	==	==	==
*-	*-	*-	*-
!!!system-decoration: {(p1)}
!!!ENC: Filip Voros
!!!END: 2022-08-24
!!!ENC: Kamil Watkowski
!!!END: 2022-09-29
!!!RDF**kern: > = above
!!!RDF**kern: < = below
!!!YEC: Copyright 2022 Narodowy Instytut Fryderyka Chopina (https://polishscores.org)
!!!YEM: License CC-BY-4.0 (https://creativecommons.org/licenses/by/4.0)
